packages/icons/svgs/duotone/Source=high.svg

<svg width="24" height="24" viewBox="0 0 24 24" fill="none" xmlns="http://www.w3.org/2000/svg">
<path fill-rule="evenodd" clip-rule="evenodd" d="M22.7071 12.7071C22.3166 13.0976 21.6834 13.0976 21.2929 12.7071L12 3.41421L2.70711 12.7071C2.31658 13.0976 1.68342 13.0976 1.29289 12.7071C0.902369 12.3166 0.902369 11.6834 1.29289 11.2929L11.2929 1.29289C11.6834 0.902368 12.3166 0.902368 12.7071 1.29289L22.7071 11.2929C23.0976 11.6834 23.0976 12.3166 22.7071 12.7071Z" fill="black" style="fill:black;fill-opacity:1;"/>
<g opacity="0.5">
<path fill-rule="evenodd" clip-rule="evenodd" d="M22.7071 22.7071C22.3166 23.0976 21.6834 23.0976 21.2929 22.7071L12 13.4142L2.70711 22.7071C2.31658 23.0976 1.68342 23.0976 1.29289 22.7071C0.902369 22.3166 0.902369 21.6834 1.29289 21.2929L11.2929 11.2929C11.6834 10.9024 12.3166 10.9024 12.7071 11.2929L22.7071 21.2929C23.0976 21.6834 23.0976 22.3166 22.7071 22.7071Z" fill="black" style="fill:black;fill-opacity:1;"/>
<path fill-rule="evenodd" clip-rule="evenodd" d="M22.7071 17.7071C22.3166 18.0976 21.6834 18.0976 21.2929 17.7071L12 8.41421L2.70711 17.7071C2.31658 18.0976 1.68342 18.0976 1.29289 17.7071C0.902369 17.3166 0.902369 16.6834 1.29289 16.2929L11.2929 6.29289C11.6834 5.90237 12.3166 5.90237 12.7071 6.29289L22.7071 16.2929C23.0976 16.6834 23.0976 17.3166 22.7071 17.7071Z" fill="black" style="fill:black;fill-opacity:1;"/>
</g>
</svg>

<svg xmlns="http://www.w3.org/2000/svg" width="24" height="24" viewBox="0 0 24 24"><path fill-rule="evenodd" d="M22.707 12.707a1 1 0 0 1-1.414 0L12 3.414l-9.293 9.293a1 1 0 0 1-1.414-1.414l10-10a1 1 0 0 1 1.414 0l10 10a1 1 0 0 1 0 1.414" clip-rule="evenodd"/><g fill-rule="evenodd" clip-rule="evenodd" opacity=".5"><path d="M22.707 22.707a1 1 0 0 1-1.414 0L12 13.414l-9.293 9.293a1 1 0 0 1-1.414-1.414l10-10a1 1 0 0 1 1.414 0l10 10a1 1 0 0 1 0 1.414"/><path d="M22.707 17.707a1 1 0 0 1-1.414 0L12 8.414l-9.293 9.293a1 1 0 0 1-1.414-1.414l10-10a1 1 0 0 1 1.414 0l10 10a1 1 0 0 1 0 1.414"/></g></svg>
